X: 32990
T: Pretty Little Dog
R: reel
M: 4/4
K: Adorian
|:eg|a2e2 g2ag|edcB A2G2|A2 (3AAA c2d2|e4 e2eg|
a2e2 g2ag|edcB A2G2|A2 (3ABc BAG2|A4 A2:|
|:AB|c2AB cBcd|edcB A2G2|A2 (3AAA c2d2|e4 e2eg|
a2e2 g2ag|edcB A2G2|A2 (3ABc BAG2|1 A4 A2:|2 A4 A4||

